!! 00000] TT[WS
!!!OTL: Cuihua beiqian
!!!ARE: Asia, China, Shanxi LInxian
!! Ethnic Group: Han
!! WII, 58 (1)
!!!SCT: J0481
!!!YEM: Copyright 1995, estate of Helmut Schaffrath.
**kern
*ICvox
*Ivox
*M2/4
*k[f#c#g#]
*A:
{8b
8ee
8ee
16dd
16b
=1
8a
4b
8b
=2
8ee
8ff#
8ee
16dd
16b
=3
8.a
16f#
16e
16f#
8e}
=4
{8a
4a
8b
=5
8ee
4b
8e
=6
8a
8b
8e
16e
16d
=7
2B}
==
!!!AGN: Xiaodiao. Qingge, Sichun
!!!ONB: ESAC (Essen Associative Code) Database: CHINA
!!!AMT: simple duple
!!!AIN: vox
!!!EED: Helmut Schaffrath
!!!EEV: 1.0
*-
